app/dist/common/images/stewart-information-services-corporation.svg

<svg height="18" viewBox="0 0 18 18" width="18" xmlns="http://www.w3.org/2000/svg"><path d="m0 0h18v18h-18z" fill="#f0f3fa"/><path d="m13.33 6h-1.96l1.67 3h1.96z" fill="#221e1f"/><path d="m6.24 6h1.96l-3.24 6h-1.96zm2.53 0h1.97l-3.24 6h-1.97zm2.51 0h1.97l-3.25 6h-1.96z" fill="#952333"/></svg>

<!-- by TradingView --><svg xmlns="http://www.w3.org/2000/svg" width="18" height="18" viewBox="0 0 18 18"><path fill="#F0F3FA" d="M0 0h18v18H0z"/><path d="M13.33 6h-1.96l1.67 3H15l-1.67-3Z" fill="#221E1F"/><path d="M6.24 6H8.2l-3.24 6H3l3.24-6ZM8.77 6h1.97L7.5 12H5.53l3.24-6ZM11.28 6h1.97L10 12H8.04l3.24-6Z" fill="#952333"/></svg>
